samples/weather-forecast/src/components/Icons/weather-icons/icons/partly-cloudy.svg

<svg xmlns="http://www.w3.org/2000/svg" xml:space="preserve" style="fill-rule:evenodd;clip-rule:evenodd" viewBox="0 0 49 48">
  <path d="M41.25 17a8.25 8.25 0 1 1-16.5 0 8.25 8.25 0 0 1 16.5 0Z" style="fill:none;stroke:#231815;stroke-width:2px"/>
  <path d="M47 17.25h-2.5M21.5 17.25H19" style="fill:none;fill-rule:nonzero;stroke:#f25022;stroke-width:2px;stroke-linecap:round;stroke-linejoin:round"/>
  <path d="M47 17.25h-2.5M21.5 17.25H19M44.999 24.216l-2.165-1.25M39.783 29.25l-1.25-2.166M27.033 7.166l-1.25-2.165M32.75 31v-2.5M32.75 5.5V3M25.783 29l1.25-2.166M38.533 6.916l1.25-2.165M20.751 23.784l2.165-1.25M42.834 11.034l2.165-1.25" style="fill:none;fill-rule:nonzero;stroke:#231815;stroke-width:2px;stroke-linecap:round;stroke-linejoin:round"/>
  <path d="M40.5 17a7.5 7.5 0 1 1-15 0 7.5 7.5 0 0 1 15 0Z" style="fill:#ffb900;fill-rule:nonzero"/>
  <path d="M22.36 14.798s.138.702.185.709C25.09 15.87 27 17.354 27 20c0 2.9-2.35 5.25-5.25 5.25H8.25a5.25 5.25 0 0 1-.748-10.447.645.645 0 0 1 .138-.005A7.504 7.504 0 0 1 15 8.75a7.504 7.504 0 0 1 7.36 6.048Z" style="fill:#f3f3f3"/>
  <path d="M8.647 25.25C5.528 25.25 3 22.788 3 19.75c0-2.653 1.929-4.868 4.495-5.385C8.378 11.132 11.403 8.75 15 8.75c4.066 0 7.402 3.044 7.737 6.92 2.408.322 4.263 2.334 4.263 4.768 0 2.657-2.212 4.812-4.941 4.812H8.647Z" style="fill:none;fill-rule:nonzero;stroke:#231815;stroke-width:2px;stroke-linecap:round;stroke-linejoin:round"/>
  <path d="M33.813 21.064s.184.936.247.945C37.454 22.493 40 24.473 40 28a7 7 0 0 1-7 7H15a7 7 0 0 1-.997-13.929.882.882 0 0 1 .184-.007C15.089 16.468 19.14 13 24 13s8.911 3.468 9.813 8.064Z" style="fill:#f3f3f3"/>
  <path d="M15.529 35C11.371 35 8 31.717 8 27.667c0-3.538 2.572-6.49 5.994-7.181C15.17 16.176 19.204 13 24 13c5.422 0 9.87 4.059 10.316 9.227 3.211.429 5.684 3.111 5.684 6.356C40 32.127 37.05 35 33.412 35H15.529Z" style="fill:none;fill-rule:nonzero;stroke:#231815;stroke-width:2px;stroke-linecap:round;stroke-linejoin:round"/>
</svg>

<?xml version="1.0" encoding="UTF-8" standalone="no"?>
<!DOCTYPE svg PUBLIC "-//W3C//DTD SVG 1.1//EN" "http://www.w3.org/Graphics/SVG/1.1/DTD/svg11.dtd">
<svg width="100%" height="100%" viewBox="0 0 49 48" version="1.1" xmlns="http://www.w3.org/2000/svg" xmlns:xlink="http://www.w3.org/1999/xlink" xml:space="preserve" xmlns:serif="http://www.serif.com/" style="fill-rule:evenodd;clip-rule:evenodd;">
    <path d="M41.25,17C41.25,21.556 37.556,25.25 33,25.25C28.444,25.25 24.75,21.556 24.75,17C24.75,12.444 28.444,8.75 33,8.75C37.556,8.75 41.25,12.444 41.25,17Z" style="fill:none;stroke:rgb(35,24,21);stroke-width:2px;"/>
    <g>
        <path d="M47,17.25L44.5,17.25" style="fill:none;fill-rule:nonzero;stroke:rgb(242,80,34);stroke-width:2px;stroke-linecap:round;stroke-linejoin:round;"/>
    </g>
    <g>
        <path d="M21.5,17.25L19,17.25" style="fill:none;fill-rule:nonzero;stroke:rgb(242,80,34);stroke-width:2px;stroke-linecap:round;stroke-linejoin:round;"/>
    </g>
    <g>
        <path d="M47,17.25L44.5,17.25" style="fill:none;fill-rule:nonzero;stroke:rgb(35,24,21);stroke-width:2px;stroke-linecap:round;stroke-linejoin:round;"/>
    </g>
    <g>
        <path d="M21.5,17.25L19,17.25" style="fill:none;fill-rule:nonzero;stroke:rgb(35,24,21);stroke-width:2px;stroke-linecap:round;stroke-linejoin:round;"/>
    </g>
    <g>
        <path d="M44.999,24.216L42.834,22.966" style="fill:none;fill-rule:nonzero;stroke:rgb(35,24,21);stroke-width:2px;stroke-linecap:round;stroke-linejoin:round;"/>
    </g>
    <g>
        <path d="M39.783,29.25L38.533,27.084" style="fill:none;fill-rule:nonzero;stroke:rgb(35,24,21);stroke-width:2px;stroke-linecap:round;stroke-linejoin:round;"/>
    </g>
    <g>
        <path d="M27.033,7.166L25.783,5.001" style="fill:none;fill-rule:nonzero;stroke:rgb(35,24,21);stroke-width:2px;stroke-linecap:round;stroke-linejoin:round;"/>
    </g>
    <g>
        <path d="M32.75,31L32.75,28.5" style="fill:none;fill-rule:nonzero;stroke:rgb(35,24,21);stroke-width:2px;stroke-linecap:round;stroke-linejoin:round;"/>
    </g>
    <g>
        <path d="M32.75,5.5L32.75,3" style="fill:none;fill-rule:nonzero;stroke:rgb(35,24,21);stroke-width:2px;stroke-linecap:round;stroke-linejoin:round;"/>
    </g>
    <g>
        <path d="M25.783,29L27.033,26.834" style="fill:none;fill-rule:nonzero;stroke:rgb(35,24,21);stroke-width:2px;stroke-linecap:round;stroke-linejoin:round;"/>
    </g>
    <g>
        <path d="M38.533,6.916L39.783,4.751" style="fill:none;fill-rule:nonzero;stroke:rgb(35,24,21);stroke-width:2px;stroke-linecap:round;stroke-linejoin:round;"/>
    </g>
    <g>
        <path d="M20.751,23.784L22.916,22.534" style="fill:none;fill-rule:nonzero;stroke:rgb(35,24,21);stroke-width:2px;stroke-linecap:round;stroke-linejoin:round;"/>
    </g>
    <g>
        <path d="M42.834,11.034L44.999,9.784" style="fill:none;fill-rule:nonzero;stroke:rgb(35,24,21);stroke-width:2px;stroke-linecap:round;stroke-linejoin:round;"/>
    </g>
    <path d="M40.5,17C40.5,21.142 37.142,24.5 33,24.5C28.858,24.5 25.5,21.142 25.5,17C25.5,12.858 28.858,9.5 33,9.5C37.142,9.5 40.5,12.858 40.5,17Z" style="fill:rgb(255,185,0);fill-rule:nonzero;"/>
    <path d="M22.36,14.798C22.36,14.798 22.498,15.5 22.545,15.507C25.09,15.87 27,17.354 27,20C27,22.9 24.65,25.25 21.75,25.25L8.25,25.25C5.351,25.25 3,22.9 3,20C3,17.354 4.957,15.166 7.502,14.803C7.549,14.796 7.596,14.795 7.64,14.798C8.317,11.351 11.355,8.75 15,8.75C18.645,8.75 21.683,11.351 22.36,14.798Z" style="fill:rgb(243,243,243);"/>
    <path d="M8.647,25.25C5.528,25.25 3,22.788 3,19.75C3,17.097 4.929,14.882 7.495,14.365C8.378,11.132 11.403,8.75 15,8.75C19.066,8.75 22.402,11.794 22.737,15.67C25.145,15.992 27,18.004 27,20.438C27,23.095 24.788,25.25 22.059,25.25L8.647,25.25Z" style="fill:none;fill-rule:nonzero;stroke:rgb(35,24,21);stroke-width:2px;stroke-linecap:round;stroke-linejoin:round;"/>
    <path d="M33.813,21.064C33.813,21.064 33.997,22 34.06,22.009C37.454,22.493 40,24.473 40,28C40,31.866 36.866,35 33,35L15,35C11.134,35 8,31.866 8,28C8,24.473 10.609,21.554 14.003,21.071C14.066,21.062 14.128,21.06 14.187,21.064C15.089,16.468 19.14,13 24,13C28.86,13 32.911,16.468 33.813,21.064Z" style="fill:rgb(243,243,243);"/>
    <path d="M15.529,35C11.371,35 8,31.717 8,27.667C8,24.129 10.572,21.177 13.994,20.486C15.17,16.176 19.204,13 24,13C29.422,13 33.87,17.059 34.316,22.227C37.527,22.656 40,25.338 40,28.583C40,32.127 37.05,35 33.412,35L15.529,35Z" style="fill:none;fill-rule:nonzero;stroke:rgb(35,24,21);stroke-width:2px;stroke-linecap:round;stroke-linejoin:round;"/>
</svg>
